assets/Mango/Flat/mango_flat.svg

<svg width="32" height="32" viewBox="0 0 32 32" fill="none" xmlns="http://www.w3.org/2000/svg">
<path d="M5.53482 2.48998L1 4.78844C2.11328 7.54429 5.01393 8.75641 7.46518 7.50999L12.5 4.99998C11.3867 2.24413 7.75 1.35 5.53482 2.48998Z" fill="#00D26A"/>
<path d="M11.343 4.79837L10.1732 5.33204C6.16866 7.16785 4.12421 11.7147 5.3572 15.984C6.4005 19.5809 8.17095 22.911 10.5632 25.7715L11.4484 26.8388C13.9987 29.8914 18.2351 30.852 21.8287 29.1976C25.6225 27.4579 27.6881 23.2632 26.7923 19.1433L26.4445 17.5637C25.7806 14.5004 24.5792 11.5653 22.9142 8.91828L22.4189 8.13913C20.0688 4.38211 15.3476 2.96256 11.343 4.79837Z" fill="#FFB02E"/>
</svg>

<svg xmlns="http://www.w3.org/2000/svg" width="32" height="32" fill="none"><path fill="#00D26A" d="M5.535 2.49 1 4.788C2.113 7.544 5.014 8.756 7.465 7.51L12.5 5c-1.113-2.756-4.75-3.65-6.965-2.51Z"/><path fill="#FFB02E" d="m11.343 4.798-1.17.534C6.17 7.168 4.124 11.715 5.357 15.984a26.945 26.945 0 0 0 5.206 9.787l.885 1.068a8.738 8.738 0 0 0 10.38 2.359c3.794-1.74 5.86-5.935 4.964-10.055l-.348-1.58a27.015 27.015 0 0 0-3.53-8.645l-.495-.779c-2.35-3.757-7.071-5.176-11.076-3.34Z"/></svg>
